www/assets/icons/sign_language.svg

<svg width="24" height="24" viewBox="0 0 24 24" xmlns="http://www.w3.org/2000/svg" fill='currentColor'><g clip-path="url(#clip0_1616_2383)"><path d="M12.49 13.0015L11.56 11.1415C11.19 10.4015 11.49 9.50147 12.23 9.13147L12.49 9.00147L18.22 14.4615C18.72 14.9315 19 15.5915 19 16.2715V21.5015C19 22.8815 17.88 24.0015 16.5 24.0015H5.5C4.95 24.0015 4.5 23.5515 4.5 23.0015C4.5 22.4515 4.95 22.0015 5.5 22.0015H10V21.0015H4C3.45 21.0015 3 20.5515 3 20.0015C3 19.4515 3.45 19.0015 4 19.0015H10V18.0015H3C2.45 18.0015 2 17.5515 2 17.0015C2 16.4515 2.45 16.0015 3 16.0015H10V15.0015H4.5C3.95 15.0015 3.5 14.5515 3.5 14.0015C3.5 13.4515 3.95 13.0015 4.5 13.0015H12.49ZM11.78 7.12147C10.94 7.52147 10.61 7.74147 10.15 8.31147L7.45 5.46147C7.07 5.06147 7.09 4.43147 7.49 4.05147C7.89 3.67147 8.52 3.69147 8.9 4.09147L11.78 7.12147ZM9.64 9.21147C9.41 9.76147 9.35 10.4515 9.44 11.0015H8.58L6.31 8.61147C5.93 8.21147 5.94 7.58147 6.35 7.20147C6.75 6.82147 7.38 6.84147 7.76 7.24147L9.64 9.21147ZM20.33 13.9115L21.21 13.0815C21.71 12.6115 22 11.9515 22 11.2615V3.35147L21.73 3.25147C20.95 2.97147 20.09 3.37147 19.81 4.15147L19.1 6.11147L13.6 0.311468C13.22 -0.0885323 12.59 -0.108532 12.19 0.271468C11.79 0.651468 11.77 1.28147 12.15 1.68147L15.94 5.67147L15.21 6.36147L10.39 1.28147C10.01 0.881468 9.38 0.861468 8.98 1.24147C8.58 1.62147 8.56 2.25147 8.94 2.65147L12.72 6.63147L15.38 9.00147L19.6 13.0115C19.89 13.2815 20.13 13.5815 20.33 13.9115Z"/></g><defs><clipPath id="clip0_1616_2383"><rect width="24" height="24"/></clipPath></defs></svg>

<svg xmlns="http://www.w3.org/2000/svg" width="24" height="24" viewBox="0 0 24 24" fill='currentColor'><g clip-path="url(#a)"><path d="m12.49 13.002-.93-1.86c-.37-.74-.07-1.64.67-2.01l.26-.13 5.73 5.46c.5.47.78 1.13.78 1.81v5.23a2.5 2.5 0 0 1-2.5 2.5h-11c-.55 0-1-.45-1-1s.45-1 1-1H10v-1H4c-.55 0-1-.45-1-1s.45-1 1-1h6v-1H3c-.55 0-1-.45-1-1s.45-1 1-1h7v-1H4.5c-.55 0-1-.45-1-1s.45-1 1-1zm-.71-5.88c-.84.4-1.17.62-1.63 1.19l-2.7-2.85a.996.996 0 1 1 1.45-1.37zm-2.14 2.09a3.46 3.46 0 0 0-.2 1.79h-.86l-2.27-2.39a.987.987 0 0 1 .04-1.41.996.996 0 0 1 1.41.04zm10.69 4.7.88-.83c.5-.47.79-1.13.79-1.82v-7.91l-.27-.1c-.78-.28-1.64.12-1.92.9l-.71 1.96-5.5-5.8a.996.996 0 1 0-1.45 1.37l3.79 3.99-.73.69-4.82-5.08a.996.996 0 1 0-1.45 1.37l3.78 3.98 2.66 2.37 4.22 4.01c.29.27.53.57.73.9"/></g><defs><clipPath id="a"><path d="M0 0h24v24H0z"/></clipPath></defs></svg>
